X: 7
T: The Berkes of Plunketty.
%R: minuet
B: "A Collection of Original Scotch-Tunes", Henry Playford, 1700, ed. p.4 #7
F: http://imslp.org/wiki/A_Collection_of_Original_Scotch_Tunes_(Various)
Z: 2015 John Chambers <jc:trillian.mit.edu>
M: 3/4
L: 1/16
K: C
% - - - - - - - - - - - - - - - - - - - - - - - - - - - - -
[|\
E3D C4 F4 | EFG2 D4 F4 |\
E3D C4 E4 | D8 A,4 ||\
ABc2 c4 c4 | Bcd2 d4 d4 |
ABc2 c4 e4 | c4 G4 || c2d2 |\
ed c4 dc B4 | cB A4 BA G4 |\
AG E2 c6 E2 | D8 C2 |]
% - - - - - - - - - - - - - - - - - - - - - - - - - - - - -

%%sep 1 1 500
%%sep 1 1 500

